X:1
T:Captain Glen
M:3/4
L:1/8
K:Eb
 B,2| EE G3 F/2E/2| CC B,3 B,| EG B3 B/2B/2| AG F3E/2-C/2| B, B,/2B,/2 B3 G|\
 AG F3 F| GG E3 C| B,B, B,4| z4||
